qraven/ext_data/icons/streamflow.svg

<?xml version="1.0" encoding="utf-8"?><svg version="1.1" id="Layer_1" xmlns="http://www.w3.org/2000/svg" xmlns:xlink="http://www.w3.org/1999/xlink" x="0px" y="0px" viewBox="0 0 122.88 90.06" style="enable-background:new 0 0 122.88 90.06" xml:space="preserve"><g><path d="M118.64,70.87c1.06-0.93,2.68-0.82,3.61,0.24c0.93,1.06,0.82,2.68-0.24,3.61c-15.57,13.62-23.47,8.45-31.53,3.18 C63.11,60,61.13,105.16,29.6,84.54c-6.42-4.2-12.72-8.32-25.36,2.74c-1.06,0.93-2.68,0.82-3.61-0.24 c-0.93-1.06-0.82-2.68,0.24-3.61c15.57-13.62,23.47-8.45,31.53-3.18c27.37,17.9,29.35-27.26,60.87-6.64 C99.7,77.81,106,81.93,118.64,70.87L118.64,70.87z M4.24,19.18C3.18,20.11,1.56,20,0.63,18.94c-0.93-1.06-0.82-2.68,0.24-3.61 c15.57-13.62,23.47-8.45,31.53-3.18c27.37,17.9,29.35-27.26,60.87-6.64c6.42,4.2,12.72,8.32,25.36-2.74 c1.06-0.93,2.68-0.82,3.61,0.24c0.93,1.06,0.82,2.68-0.24,3.61c-15.57,13.62-23.47,8.45-31.53,3.18 C63.11-8.1,61.13,37.07,29.6,16.44C23.18,12.24,16.88,8.12,4.24,19.18L4.24,19.18z M4.24,41.88c-1.06,0.93-2.68,0.82-3.61-0.24 c-0.93-1.06-0.82-2.68,0.24-3.61c15.57-13.62,23.47-8.45,31.53-3.18c27.37,17.9,29.35-27.26,60.87-6.64 c6.42,4.2,12.72,8.32,25.36-2.74c1.06-0.93,2.68-0.82,3.61,0.24c0.93,1.06,0.82,2.68-0.24,3.61c-15.57,13.62-23.47,8.45-31.53,3.18 C63.11,14.6,61.13,59.77,29.6,39.14C23.18,34.94,16.88,30.82,4.24,41.88L4.24,41.88z M4.24,64.58c-1.06,0.93-2.68,0.82-3.61-0.24 c-0.93-1.06-0.82-2.68,0.24-3.61c15.57-13.62,23.47-8.45,31.53-3.18c27.37,17.9,29.35-27.26,60.87-6.64 c6.42,4.2,12.72,8.32,25.36-2.74c1.06-0.93,2.68-0.82,3.61,0.24c0.93,1.06,0.82,2.68-0.24,3.61c-15.57,13.62-23.47,8.45-31.53,3.18 C63.11,37.3,61.13,82.47,29.6,61.84C23.18,57.64,16.88,53.52,4.24,64.58L4.24,64.58z"/></g></svg>

<?xml version="1.0" encoding="UTF-8" standalone="no"?>
<svg
   xmlns:dc="http://purl.org/dc/elements/1.1/"
   xmlns:cc="http://creativecommons.org/ns#"
   xmlns:rdf="http://www.w3.org/1999/02/22-rdf-syntax-ns#"
   xmlns:svg="http://www.w3.org/2000/svg"
   xmlns="http://www.w3.org/2000/svg"
   xmlns:sodipodi="http://sodipodi.sourceforge.net/DTD/sodipodi-0.dtd"
   xmlns:inkscape="http://www.inkscape.org/namespaces/inkscape"
   id="Layer_1"
   data-name="Layer 1"
   viewBox="-1 0 124.72439 109.6063"
   version="1.1"
   sodipodi:docname="streamflow2.svg"
   width="33mm"
   height="29mm"
   inkscape:version="0.92.5 (2060ec1f9f, 2020-04-08)">
  <metadata
     id="metadata3790">
    <rdf:RDF>
      <cc:Work
         rdf:about="">
        <dc:format>image/svg+xml</dc:format>
        <dc:type
           rdf:resource="http://purl.org/dc/dcmitype/StillImage" />
        <dc:title>toolbox-repairing</dc:title>
      </cc:Work>
    </rdf:RDF>
  </metadata>
  <sodipodi:namedview
     pagecolor="#ffffff"
     bordercolor="#666666"
     borderopacity="1"
     objecttolerance="10"
     gridtolerance="10"
     guidetolerance="10"
     inkscape:pageopacity="0"
     inkscape:pageshadow="2"
     inkscape:window-width="1920"
     inkscape:window-height="1049"
     id="namedview3788"
     showgrid="false"
     scale-x="1.4"
     height="1"
     units="mm"
     viewbox-width="95.6"
     viewbox-x="-1"
     inkscape:zoom="2.14995"
     inkscape:cx="61.439999"
     inkscape:cy="17.67483"
     inkscape:window-x="1920"
     inkscape:window-y="0"
     inkscape:window-maximized="1"
     inkscape:current-layer="Layer_1" />
  <defs
     id="defs3781">
    <style
       id="style3779">.cls-1{fill-rule:evenodd;}</style>
    <style
       id="style3993">.cls-1{fill-rule:evenodd;}</style>
  </defs>
  <title
     id="title3783">toolbox-repairing</title>
  <g
     id="g4142"
     transform="translate(-0.57809518,11.556809)">
    <path
       id="path4140"
       d="m 118.64,70.87 c 1.06,-0.93 2.68,-0.82 3.61,0.24 0.93,1.06 0.82,2.68 -0.24,3.61 C 106.44,88.34 98.54,83.17 90.48,77.9 63.11,60 61.13,105.16 29.6,84.54 23.18,80.34 16.88,76.22 4.24,87.28 3.18,88.21 1.56,88.1 0.63,87.04 -0.3,85.98 -0.19,84.36 0.87,83.43 16.44,69.81 24.34,74.98 32.4,80.25 59.77,98.15 61.75,52.99 93.27,73.61 99.7,77.81 106,81.93 118.64,70.87 Z M 4.24,19.18 C 3.18,20.11 1.56,20 0.63,18.94 -0.3,17.88 -0.19,16.26 0.87,15.33 16.44,1.71 24.34,6.88 32.4,12.15 c 27.37,17.9 29.35,-27.26 60.87,-6.64 6.42,4.2 12.72,8.32 25.36,-2.74 1.06,-0.93 2.68,-0.82 3.61,0.24 0.93,1.06 0.82,2.68 -0.24,3.61 C 106.43,20.24 98.53,15.07 90.47,9.8 63.11,-8.1 61.13,37.07 29.6,16.44 23.18,12.24 16.88,8.12 4.24,19.18 Z m 0,22.7 C 3.18,42.81 1.56,42.7 0.63,41.64 -0.3,40.58 -0.19,38.96 0.87,38.03 16.44,24.41 24.34,29.58 32.4,34.85 59.77,52.75 61.75,7.59 93.27,28.21 c 6.42,4.2 12.72,8.32 25.36,-2.74 1.06,-0.93 2.68,-0.82 3.61,0.24 0.93,1.06 0.82,2.68 -0.24,3.61 C 106.43,42.94 98.53,37.77 90.47,32.5 63.11,14.6 61.13,59.77 29.6,39.14 23.18,34.94 16.88,30.82 4.24,41.88 Z m 0,22.7 C 3.18,65.51 1.56,65.4 0.63,64.34 -0.3,63.28 -0.19,61.66 0.87,60.73 16.44,47.11 24.34,52.28 32.4,57.55 c 27.37,17.9 29.35,-27.26 60.87,-6.64 6.42,4.2 12.72,8.32 25.36,-2.74 1.06,-0.93 2.68,-0.82 3.61,0.24 0.93,1.06 0.82,2.68 -0.24,3.61 C 106.43,65.64 98.53,60.47 90.47,55.2 63.11,37.3 61.13,82.47 29.6,61.84 23.18,57.64 16.88,53.52 4.24,64.58 Z"
       inkscape:connector-curvature="0" />
  </g>
</svg>
